!!!!SEGMENT: pl-kk--kk-i-389--002-001_anonim--missa-no-2-rorate.krn
!!!cenid: 17xx:2460
!!!COM: Anonim
!!!COM-rismID: pe30004985
!!!CDT:
!!!CNT:
!!!OPR: [Missa] No. 2.
!!!OTL: Rorate
!!!OMV: 001
!!!PDT:
!!!AGN: Sacred; Mass
!!!YEC: Copyright 2022 Narodowy Instytut Fryderyka Chopina (https://polishscores.org)
!!!YEM: License CC-BY-4.0 (https://creativecommons.org/licenses/by/4.0)
!!!SMS-siglum: PL-Kk
!!!SMS-shelfmark: Kk.I.389
!!!SMS-variant:
!!!SMS-altvar:
!!!SMS-shelfwork: 002-001 M
!!!NIFC-rismSourceID: 1001146182
!!!NIFC-rismChildID: 1001146223
!!!NIFC-islandoraID: pl-kk:6976
!!!URL-pdf-islandora: https://repozytorium.nifc.pl/islandora/object/pl-kk%3A6976/datastream/PDF/view
!!!URL-scan: https://polish.musicsources.pl/pl/lokalizacje/galeria/rekopisy/5999/1 @EN{Scan on Polish Music Sources Website} @PL{Skany w portalu Dziedzictwo Muzyki Polskiej w otwartym dostępie}
!!!IIIF:
!!!ONB-nifc: UWAGA: S – skan 4-5, A – 23-24, T – 42-43 , B – 61-62. Części Mszy: Rorate, Kyrie, Gloria, Graduale, Sanctus, Benedictus, Agnus.
!!!AIN: 1 alto 1 bass 1 soprn 1 tenor
!!!key: d
**kern	**text	**kern	**text	**kern	**text	**kern	**text
*part4	*part4	*part3	*part3	*part2	*part2	*part1	*part1
*staff4	*staff4	*staff3	*staff3	*staff2	*staff2	*staff1	*staff1
*I"Basso.	*	*I"Tenore.	*	*I"Alto.	*	*I"Soprano.	*
*I'[B]	*	*I'[T]	*	*I'[A]	*	*I'[S]	*
*ICvox	*	*ICvox	*	*ICvox	*	*ICvox	*
*Ibass	*	*Itenor	*	*Ialto	*	*Isoprn	*
*clefF4	*	*clefC4	*	*clefC3	*	*clefC1	*
*k[b-]	*	*k[b-]	*	*k[b-]	*	*k[b-]	*
*d:	*	*d:	*	*d:	*	*d:	*
*M2/2	*	*M2/2	*	*M2/2	*	*M2/2	*
*met(C|)	*	*met(C|)	*	*met(C|)	*	*met(C|)	*
=1-	=1-	=1-	=1-	=1-	=1-	=1-	=1-
!!LO:TX:t=P:problem: all\right	!	!	!	!	!	!	!
!LO:TX:a:t=9.	!	!LO:TX:a:t=6	!	!LO:TX:a:t=3.	!	!LO:TX:t=P:problem:kreska pseudotaktowa	!
00r	.	00r	.	0r	.	1f	Ro-
=2-	=2-	=2-	=2-	=2-	=2-	=2-	=2-
!	!	!	!	!	!	!LO:TX:t=P:problem:kreska pseudotaktowa	!
.	.	.	.	.	.	1g	-ra-
=3-	=3-	=3-	=3-	=3-	=3-	=3-	=3-
!	!	!	!	!LO:TX:t=P:problem:kreska pseudotaktowa	!	!	!
.	.	.	.	1r	.	4f/	-te,
.	.	.	.	.	.	4g/	ro-
.	.	.	.	.	.	4a\	-ra-
!	!	!	!	!	!	!LO:TX:t=P:problem:kreska pseudotaktowa	!
.	.	.	.	.	.	4b-\	-te
=4-	=4-	=4-	=4-	=4-	=4-	=4-	=4-
*	*	*	*	*	*	*2\right	*
!	!	!	!	!LO:TX:t=P:problem:kreska pseudotaktowa	!	!	!
.	.	.	.	1c	Ro-	2cc\	Ce-
!	!	!	!	!	!	!LO:TX:t=P:problem:kreska pseudotaktowa	!
.	.	.	.	.	.	2cc\	-li
=5-	=5-	=5-	=5-	=5-	=5-	=5-	=5-
!	!	!LO:TX:t=P:problem:kreska pseudotaktowa	!	!LO:TX:t=P:problem:kreska pseudotaktowa	!	!	!
00r	.	0r	.	1d	-ra-	2cc\	de-
!	!	!	!	!	!	!LO:TX:t=P:problem:kreska pseudotaktowa	!
.	.	.	.	.	.	2bn\	-su-
=6-	=6-	=6-	=6-	=6-	=6-	=6-	=6-
.	.	.	.	4c\	-te,	2cc\	-per,
.	.	.	.	4d\	ro-	.	.
!	!	!	!	!	!	!LO:TX:t=P:problem:kreska pseudotaktowa	!
.	.	.	.	4e\	-ra-	2cc\	Ro-
!	!	!	!	!LO:TX:t=P:problem:kreska pseudotaktowa	!	!	!
.	.	.	.	4c\	-te	.	.
=7-	=7-	=7-	=7-	=7-	=7-	=7-	=7-
*	*	*	*	*2\right	*	*	*
!	!	!LO:TX:t=P:problem:kreska pseudotaktowa	!	!	!	!	!
.	.	1F	Ro-	2f\	ce-	2.a\	-ra-
!	!	!	!	!LO:TX:t=P:problem:kreska pseudotaktowa	!	!	!
.	.	.	.	2f\	-li	.	.
.	.	.	.	.	.	8g\L	.
!	!	!	!	!	!	!LO:TX:t=P:problem:kreska pseudotaktowa	!
.	.	.	.	.	.	8f\J	.
=8-	=8-	=8-	=8-	=8-	=8-	=8-	=8-
!	!	!LO:TX:t=P:problem:kreska pseudotaktowa	!	!	!	!	!
.	.	1G	-ra-	2f\	de-	2g\	.
!	!	!	!	!LO:TX:t=P:problem:kreska pseudotaktowa	!	!LO:TX:t=P:problem:kreska pseudotaktowa	!
.	.	.	.	2e\	-su-	2b-y\	-te
!	!	!	!	!	!	!LO:LB:g=original	!
=9-	=9-	=9-	=9-	=9-	=9-	=9-	=9-
!LO:TX:t=P:problem:kreska pseudotaktowa	!	!	!	!	!	!	!
1r	.	4F/	-te,	2f\	-per,	4cc\	Ce-
.	.	4G/	ro-	.	.	4b-\	.
!	!	!	!	!LO:TX:t=P:problem:kreska pseudotaktowa	!	!	!
.	.	4A/	-ra-	2f\	de-	4a\	.
!	!	!LO:TX:t=P:problem:kreska pseudotaktowa	!	!	!	!LO:TX:t=P:problem:kreska pseudotaktowa	!
.	.	4B-/	-te	.	.	4b-\	.
=10-	=10-	=10-	=10-	=10-	=10-	=10-	=10-
*	*	*2\right	*	*	*	*	*
!LO:TX:t=P:problem:kreska pseudotaktowa	!	!	!	!	!	!	!
1C	Ro-	2c\	ce-	2.e\	.	2g\	-li,
!	!	!LO:TX:t=P:problem:kreska pseudotaktowa	!	!	!	!LO:TX:t=P:problem:kreska pseudotaktowa	!
.	.	2c\	-li	.	.	2r	.
.	.	.	.	8d\L	-su-	.	.
!	!	!	!	!LO:TX:t=P:problem:kreska pseudotaktowa	!	!	!
.	.	.	.	8c\J	.	.	.
=11-	=11-	=11-	=11-	=11-	=11-	=11-	=11-
!	!	!	!	!	!	!LO:TX:a:t=1.	!
!LO:TX:t=P:problem:kreska pseudotaktowa	!	!	!	!	!	!LO:TX:t=P:problem:kreska pseudotaktowa	!
1D	-ra-	2c\	de-	4d\	-per,	1r	.
.	.	.	.	4f\	Ro-	.	.
!	!	!LO:TX:t=P:problem:kreska pseudotaktowa	!	!	!	!	!
.	.	2Bn\	-su-	4f\	-ra-	.	.
!	!	!	!	!LO:TX:t=P:problem:kreska pseudotaktowa	!	!	!
.	.	.	.	4f\	-te	.	.
!	!	!	!	!LO:LB:g=original	!	!	!
=12-	=12-	=12-	=12-	=12-	=12-	=12-	=12-
4C/	-te	2c\	-per	2e\	ce-	2r	.
4D/	ro-	.	.	.	.	.	.
!	!	!LO:TX:t=P:problem:kreska pseudotaktowa	!	!LO:TX:t=P:problem:kreska pseudotaktowa	!	!LO:TX:t=P:problem:kreska pseudotaktowa	!
4E/	-ra-	2c\	Ro-	2e\	-li	2ee\	Ce-
!LO:TX:t=P:problem:kreska pseudotaktowa	!	!	!	!	!	!	!
4C/	-te	.	.	.	.	.	.
=13-	=13-	=13-	=13-	=13-	=13-	=13-	=13-
*2\right	*	*	*	*	*	*	*
2F\	Ce-	2.A\	-ra-	2c\	de-	2ff\	.
!LO:TX:t=P:problem:kreska pseudotaktowa	!	!	!	!LO:TX:t=P:problem:kreska pseudotaktowa	!	!LO:TX:t=P:problem:kreska pseudotaktowa	!
2F\	-li	.	.	2f\	.	2cc\	li
!	!	!LO:TX:t=P:problem:kreska pseudotaktowa	!	!	!	!	!
.	.	4c\	-te	.	.	.	.
=14-	=14-	=14-	=14-	=14-	=14-	=14-	=14-
2F\	de-	4d\	ce-	2.g\	.	2.b-\	de-
.	.	4d\	-li	.	.	.	.
!LO:TX:t=P:problem:kreska pseudotaktowa	!	!LO:LB:g=original	!	!	!	!	!
2E\	-su-	4c\	de-	.	.	.	.
!	!	!LO:TX:t=P:problem:kreska pseudotaktowa	!	!LO:TX:t=P:problem:kreska pseudotaktowa	!	!LO:TX:t=P:problem:kreska pseudotaktowa	!
.	.	4c\	-su-	4g\	-su-	4b-\	-su-
=15-	=15-	=15-	=15-	=15-	=15-	=15-	=15-
2F\	-per	2c\	-per,	2f\	-per,	2a\	-per,
!LO:TX:t=P:problem:kreska pseudotaktowa	!	!LO:TX:t=P:problem:kreska pseudotaktowa	!	!LO:TX:t=P:problem:kreska pseudotaktowa	!	!LO:TX:t=P:problem:kreska pseudotaktowa	!
2A\	et	2c\	et	2f\	et	2cc\	et
=16-	=16-	=16-	=16-	=16-	=16-	=16-	=16-
!	!	!	!	!LO:TX:t=P:problem:kreska pseudotaktowa	!	!	!
4B-\	nu-	2.B-y\	nu-	1f	nu-	2.dd\	nu-
4A\	.	.	.	.	.	.	.
4B-\	-bes	.	.	.	.	.	.
!LO:TX:t=P:problem:kreska pseudotaktowa	!	!LO:TX:t=P:problem:kreska pseudotaktowa	!	!	!	!LO:TX:t=P:problem:kreska pseudotaktowa	!
4G\	.	4B-\	-bes	.	.	4dd\	-bes
!LO:LB:g=original	!	!	!	!	!	!	!
=17-	=17-	=17-	=17-	=17-	=17-	=17-	=17-
2c\	plu-	2G/	plu-	2e\	.	2cc\	plu-
!LO:TX:t=P:problem:kreska pseudotaktowa	!	!LO:TX:t=P:problem:kreska pseudotaktowa	!	!LO:TX:t=P:problem:kreska pseudotaktowa	!	!LO:TX:t=P:problem:kreska pseudotaktowa	!
2A\	-ant	2c\	-ant	2f\	-bes	2a\	-ant
!	!	!	!	!	!	!LO:LB:g=original	!
=18-	=18-	=18-	=18-	=18-	=18-	=18-	=18-
4B-\	plu-	4d\	plu-	4f\	plu-	4f\	plu-
4F\	-ant	4c\	-ant	4f\	-ant	4a\	-ant
!	!	!LO:TX:t=P:problem:kreska pseudotaktowa	!	!LO:TX:t=P:problem:kreska pseudotaktowa	!	!LO:TX:t=P:problem:kreska pseudotaktowa	!
4c\	ju-	2Bn\	ju-	2e\	ju-	2g\	ju-
!LO:TX:t=P:problem:kreska pseudotaktowa	!	!	!	!	!	!	!
4C/	.	.	.	.	.	.	.
=19-	=19-	=19-	=19-	=19-	=19-	=19-	=19-
2F\	-stum	2c\	-stum	2f\	-stum	2a\	-stum,
!LO:TX:t=P:problem:kreska pseudotaktowa	!	!LO:TX:t=P:problem:kreska pseudotaktowa	!	!LO:TX:t=P:problem:kreska pseudotaktowa	!	!LO:TX:t=P:problem:kreska pseudotaktowa	!
2F\	Ro-	2r	.	2r	.	2r	.
=20-	=20-	=20-	=20-	=20-	=20-	=20-	=20-
!	!	!LO:TX:a:t=8.	!	!LO:TX:a:t=2	!	!LO:TX:a:t=5	!
!LO:TX:t=P:problem:kreska pseudotaktowa	!	!	!	!LO:TX:t=P:problem:kreska pseudotaktowa	!	!	!
1G	-ra-	00r	.	0r	.	00r	.
=21-	=21-	=21-	=21-	=21-	=21-	=21-	=21-
4F\	-te	.	.	.	.	.	.
4G\	ro-	.	.	.	.	.	.
4A\	-ra-	.	.	.	.	.	.
!LO:TX:t=P:problem:kreska pseudotaktowa	!	!	!	!	!	!	!
4B-\	-te	.	.	.	.	.	.
=22-	=22-	=22-	=22-	=22-	=22-	=22-	=22-
!	!	!	!	!LO:TX:t=P:problem:kreska pseudotaktowa	!	!	!
2c\	ce-	.	.	1c	Ro-	.	.
!LO:TX:t=P:problem:kreska pseudotaktowa	!	!	!	!	!	!	!
2c\	-li	.	.	.	.	.	.
!	!	!	!	!LO:LB:g=original	!	!	!
=23-	=23-	=23-	=23-	=23-	=23-	=23-	=23-
!	!	!	!	!LO:TX:t=P:problem:kreska pseudotaktowa	!	!	!
2c\	de-	.	.	1d	-ra-	.	.
!LO:TX:t=P:problem:kreska pseudotaktowa	!	!	!	!	!	!	!
2Bn\	-su-	.	.	.	.	.	.
=24-	=24-	=24-	=24-	=24-	=24-	=24-	=24-
!	!	!LO:TX:t=P:problem:kreska pseudotaktowa	!	!	!	!LO:TX:t=P:problem:kreska pseudotaktowa	!
2c\	-per	00r	.	4c\	-te,	1r	.
.	.	.	.	4d\	ro-	.	.
!LO:TX:t=P:problem:kreska pseudotaktowa	!	!	!	!	!	!	!
2c\	Ro-	.	.	4e\	-ra-	.	.
!	!	!	!	!LO:TX:t=P:problem:kreska pseudotaktowa	!	!	!
.	.	.	.	4c\	-te	.	.
!LO:LB:g=original	!	!	!	!	!	!	!
=25-	=25-	=25-	=25-	=25-	=25-	=25-	=25-
!	!	!	!	!	!	!LO:TX:t=P:problem:kreska pseudotaktowa	!
2A\	-ra-	.	.	2f\	ce-	1f	Ro-
!LO:TX:t=P:problem:kreska pseudotaktowa	!	!	!	!LO:TX:t=P:problem:kreska pseudotaktowa	!	!	!
2F\	-te	.	.	2f\	-li	.	.
=26-	=26-	=26-	=26-	=26-	=26-	=26-	=26-
!	!	!	!	!	!	!LO:TX:t=P:problem:kreska pseudotaktowa	!
2E\	ce-	.	.	2g\	ce-	1g	-ra-
!LO:TX:t=P:problem:kreska pseudotaktowa	!	!	!	!LO:TX:t=P:problem:kreska pseudotaktowa	!	!	!
2C/	-li	.	.	2g\	-li	.	.
=27-	=27-	=27-	=27-	=27-	=27-	=27-	=27-
2F\	de-	.	.	4a\	de-	4f/	-te,
.	.	.	.	4g\	.	4g\	ro-
!LO:TX:t=P:problem:kreska pseudotaktowa	!	!	!	!LO:TX:t=P:problem:kreska pseudotaktowa	!	!	!
2D\	-su-	.	.	2f\	-su-	4a\	-ra-
!	!	!	!	!	!	!LO:TX:t=P:problem:kreska pseudotaktowa	!
.	.	.	.	.	.	4b-\	-te
=28-	=28-	=28-	=28-	=28-	=28-	=28-	=28-
!	!	!LO:TX:t=P:problem:kreska pseudotaktowa	!	!	!	!	!
2C/	-per	1C	Ro-	2e\	-per,	2cc\	Ce-
!LO:TX:t=P:problem:kreska pseudotaktowa	!	!	!	!LO:TX:t=P:problem:kreska pseudotaktowa	!	!	!
2AA/	Ro-	.	.	2r	.	4cc\	-li
!	!	!	!	!	!	!LO:TX:t=P:problem:kreska pseudotaktowa	!
.	.	.	.	.	.	4cc\	ro-
=29-	=29-	=29-	=29-	=29-	=29-	=29-	=29-
!	!	!	!	!LO:TX:a:t=1.	!	!	!
!	!	!LO:TX:t=P:problem:kreska pseudotaktowa	!	!LO:TX:t=P:problem:kreska pseudotaktowa	!	!	!
2BB-/	-ra-	1D	-ra-	1r	.	2dd\	-ra-
!LO:TX:t=P:problem:kreska pseudotaktowa	!	!	!	!	!	!LO:TX:t=P:problem:kreska pseudotaktowa	!
2GG/	-te	.	.	.	.	2dd\	-te
!	!	!LO:LB:g=original	!	!	!	!	!
=30-	=30-	=30-	=30-	=30-	=30-	=30-	=30-
!	!	!	!	!	!	!LO:TX:t=P:problem:kreska pseudotaktowa	!
4C/	ce-	4C/	-te	2r	.	(1cc	ce-
4BB-/	.	4D/	ro-	.	.	.	.
!LO:TX:t=P:problem:kreska pseudotaktowa	!	!	!	!LO:TX:t=P:problem:kreska pseudotaktowa	!	!	!
2AA/	-li	4E/	-ra-	[2f\	ce-	.	.
!	!	!LO:TX:t=P:problem:kreska pseudotaktowa	!	!	!	!	!
.	.	4C/	-te	.	.	.	.
=31-	=31-	=31-	=31-	=31-	=31-	=31-	=31-
2BB-/	ce-	2F/	ce-	2f\]	.	2dd\)	.
!LO:TX:t=P:problem:kreska pseudotaktowa	!	!LO:TX:t=P:problem:kreska pseudotaktowa	!	!LO:TX:t=P:problem:kreska pseudotaktowa	!	!LO:TX:t=P:problem:kreska pseudotaktowa	!
2AA/	-li	2F/	-li	2f\	-li	2cc\	-li
!	!	!	!	!	!	!LO:LB:g=original	!
=32-	=32-	=32-	=32-	=32-	=32-	=32-	=32-
2.GG/	de-	2.G/	de-	2f\	de-	2.b-\	de-
!	!	!	!	!LO:TX:t=P:problem:kreska pseudotaktowa	!	!	!
.	.	.	.	2e\	-su-	.	.
!LO:TX:t=P:problem:kreska pseudotaktowa	!	!LO:TX:t=P:problem:kreska pseudotaktowa	!	!	!	!LO:TX:t=P:problem:kreska pseudotaktowa	!
4GG/	-su-	4G/	-su-	.	.	4b-\	-su-
!	!	!	!	!LO:LB:g=original	!	!	!
=33-	=33-	=33-	=33-	=33-	=33-	=33-	=33-
2FF/	-per	2A\	-per,	2f\	-per,	2a\	-per,
!LO:LB:g=original	!	!LO:TX:t=P:problem:kreska pseudotaktowa	!	!LO:TX:t=P:problem:kreska pseudotaktowa	!	!LO:TX:t=P:problem:kreska pseudotaktowa	!
!LO:TX:t=P:problem:kreska pseudotaktowa	!	!	!	!	!	!	!
2F\	et	2c\	et	2f\	et	2a\	et
=34-	=34-	=34-	=34-	=34-	=34-	=34-	=34-
2D\	nu-	2d\	nu-	2f\	nu-	2bn\	nu-
!LO:TX:t=P:problem:kreska pseudotaktowa	!	!LO:TX:t=P:problem:kreska pseudotaktowa	!	!LO:TX:t=P:problem:kreska pseudotaktowa	!	!LO:TX:t=P:problem:kreska pseudotaktowa	!
2C/	-bes	2G/	-bes	2e\	-bes	2cc\	-bes
=35-	=35-	=35-	=35-	=35-	=35-	=35-	=35-
4F\	plu-	4A/	plu-	4d\	plu-	4cc\	plu-
4D\	-ant	4A/	-ant	4d\	-ant	4cc\	-ant
!LO:TX:t=P:problem:kreska pseudotaktowa	!	!LO:TX:t=P:problem:kreska pseudotaktowa	!	!LO:TX:t=P:problem:kreska pseudotaktowa	!	!LO:TX:t=P:problem:kreska pseudotaktowa	!
2G\	ju-	2G/	ju-	2d\	ju-	2bn\	ju-
=36-	=36-	=36-	=36-	=36-	=36-	=36-	=36-
2C/	-stum	2G/	-stum	2e\	-stum	2cc\	-stum
!LO:TX:t=P:problem:kreska pseudotaktowa	!	!LO:TX:t=P:problem:kreska pseudotaktowa	!	!LO:TX:t=P:problem:kreska pseudotaktowa	!	!LO:TX:t=P:problem:kreska pseudotaktowa	!
2AA/	et	2c\	et	2f\	et	2cc\	et
=37-	=37-	=37-	=37-	=37-	=37-	=37-	=37-
2.BB-X/	nu-	2.B-X\	nu-	2.f\	nu-	2.dd\	nu-
!LO:TX:t=P:problem:kreska pseudotaktowa	!	!LO:TX:t=P:problem:kreska pseudotaktowa	!	!LO:TX:t=P:problem:kreska pseudotaktowa	!	!LO:TX:t=P:problem:kreska pseudotaktowa	!
4C/	-bes	4B-\	-bes	4f\	-bes	4cc\	-bes
!	!	!LO:LB:g=original	!	!	!	!	!
=38-	=38-	=38-	=38-	=38-	=38-	=38-	=38-
4D/	plu-	4A/	plu-	4f\	plu-	4b-X\	plu-
4BB-/	-ant	4A/	-ant	4f\	-ant	4dd\	-ant
!LO:TX:t=P:problem:kreska pseudotaktowa	!	!LO:TX:t=P:problem:kreska pseudotaktowa	!	!LO:TX:t=P:problem:kreska pseudotaktowa	!	!LO:TX:t=P:problem:kreska pseudotaktowa	!
2C/	ju-	2G/	ju-	2e\	ju-	2cc\	ju-
=39-	=39-	=39-	=39-	=39-	=39-	=39-	=39-
2FF/	-stum	2A\	-stum,	2f\	-stum	2cc\	-stum
!LO:TX:t=P:problem:kreska pseudotaktowa	!	!LO:TX:t=P:problem:kreska pseudotaktowa	!	!LO:TX:t=P:problem:kreska pseudotaktowa	!	!LO:TX:t=P:problem:kreska pseudotaktowa	!
2r	.	2r	.	2f\	a-	2a\	a-
!	!	!	!	!	!	!LO:LB:g=original	!
=40-	=40-	=40-	=40-	=40-	=40-	=40-	=40-
2r	.	2r	.	2.f\	-pe-	2.a\	-pe-
!LO:TX:t=P:problem:kreska pseudotaktowa	!	!LO:TX:t=P:problem:kreska pseudotaktowa	!	!	!	!	!
2F\	a-	2A\	a-	.	.	.	.
!	!	!	!	!LO:TX:t=P:problem:kreska pseudotaktowa	!	!LO:TX:t=P:problem:kreska pseudotaktowa	!
.	.	.	.	4f\	-ri-	4cc\	-ri-
=41-	=41-	=41-	=41-	=41-	=41-	=41-	=41-
!	!	!	!	!LO:TX:t=P:problem:kreska pseudotaktowa	!	!	!
2B-y\	-pe-	2B-\	-pe-	[1f	-a-	2dd\	-a-
!LO:TX:t=P:problem:kreska pseudotaktowa	!	!LO:TX:t=P:problem:kreska pseudotaktowa	!	!	!	!LO:TX:t=P:problem:kreska pseudotaktowa	!
2A\	-ri-	2c\	-ri-	.	.	2cc\	-tur
!LO:LB:g=original	!	!	!	!	!	!	!
=42-	=42-	=42-	=42-	=42-	=42-	=42-	=42-
2B-\	-a-	2B-\	-a-	2f\]	.	2dd\	ter-
4F\	-tur	4A\	-tur	4f\	-tur	4cc\	-ra,
!LO:TX:t=P:problem:kreska pseudotaktowa	!	!LO:TX:t=P:problem:kreska pseudotaktowa	!	!LO:TX:t=P:problem:kreska pseudotaktowa	!	!LO:TX:t=P:problem:kreska pseudotaktowa	!
4F\	a-	4A\	a-	4f\	a-	4cc\	a-
!	!	!	!	!LO:LB:g=original	!	!	!
=43-	=43-	=43-	=43-	=43-	=43-	=43-	=43-
2B-\	-pe-	2B-\	-pe-	2f\	-pe-	2dd\	-pe-
!LO:TX:t=P:problem:kreska pseudotaktowa	!	!LO:TX:t=P:problem:kreska pseudotaktowa	!	!LO:TX:t=P:problem:kreska pseudotaktowa	!	!LO:TX:t=P:problem:kreska pseudotaktowa	!
2A\	-ri-	2c\	-ri-	2f#X\	-ri-	2cc\	-ri-
=44-	=44-	=44-	=44-	=44-	=44-	=44-	=44-
2G\	-a-	2B-\	-a-	2g\	-a-	2dd\	-a-
!LO:TX:t=P:problem:kreska pseudotaktowa	!	!LO:TX:t=P:problem:kreska pseudotaktowa	!	!LO:TX:t=P:problem:kreska pseudotaktowa	!	!LO:TX:t=P:problem:kreska pseudotaktowa	!
2F#X\	-tur	2d\	-tur	2a\	-tur	2dd\	-tur
=45-	=45-	=45-	=45-	=45-	=45-	=45-	=45-
2G\	ter-	2B-\	ter-	2g\	ter-	2dd\	ter-
!LO:TX:t=P:problem:kreska pseudotaktowa	!	!	!	!	!	!LO:TX:t=P:problem:kreska pseudotaktowa	!
2D\	-ra,	4A\	-ra,	4f#X\	-ra,	2dd\	-ra
!	!	!LO:TX:t=P:problem:kreska pseudotaktowa	!	!LO:TX:t=P:problem:kreska pseudotaktowa	!	!	!
.	.	4d\	et	4f#\	a-	.	.
!	!	!LO:LB:g=original	!	!	!	!	!
=46-	=46-	=46-	=46-	=46-	=46-	=46-	=46-
2r	.	2.d\	ger-	2.f#X\	-pe-	2r	.
!LO:TX:t=P:problem:kreska pseudotaktowa	!	!	!	!	!	!LO:TX:t=P:problem:kreska pseudotaktowa	!
2D\	a-	.	.	.	.	2a\	a-
!	!	!LO:TX:t=P:problem:kreska pseudotaktowa	!	!LO:TX:t=P:problem:kreska pseudotaktowa	!	!	!
.	.	4d\	-mi-	4f#\	-ri-	.	.
=47-	=47-	=47-	=47-	=47-	=47-	=47-	=47-
!	!	!LO:TX:t=P:problem:kreska pseudotaktowa	!	!	!	!	!
2G\	-pe-	1d	-net	2g\	-a-	2b-\	-pe-
!LO:TX:t=P:problem:kreska pseudotaktowa	!	!	!	!LO:TX:t=P:problem:kreska pseudotaktowa	!	!LO:TX:t=P:problem:kreska pseudotaktowa	!
2F#X\	-ri-	.	.	2a\	-tur	2a\	-ri-
=48-	=48-	=48-	=48-	=48-	=48-	=48-	=48-
2G\	-a-	2d\	ger-	2g\	ter-	2b-\	-a-
4D\	-tur	4d\	-mi-	4f#X\	-ra	4a\	-tur
!LO:TX:t=P:problem:kreska pseudotaktowa	!	!LO:TX:t=P:problem:kreska pseudotaktowa	!	!LO:TX:t=P:problem:kreska pseudotaktowa	!	!LO:TX:t=P:problem:kreska pseudotaktowa	!
4D\	a-	4d\	-net	4f#\	a-	4a\	a-
!	!	!	!	!	!	!LO:LB:g=original	!
=49-	=49-	=49-	=49-	=49-	=49-	=49-	=49-
2G\	-pe-	2d\	Sal-	2g\	-pe-	2b-\	-pe-
!LO:TX:t=P:problem:kreska pseudotaktowa	!	!LO:TX:t=P:problem:kreska pseudotaktowa	!	!LO:TX:t=P:problem:kreska pseudotaktowa	!	!LO:TX:t=P:problem:kreska pseudotaktowa	!
2F#X\	-ri-	2d\	-va-	2a\	-ri-	2dd\	-ri-
!LO:LB:g=original	!	!	!	!	!	!	!
=50-	=50-	=50-	=50-	=50-	=50-	=50-	=50-
2G\	-a-	2B-X\	-to-	2g\	-a-	2b-\	-a-
!LO:TX:t=P:problem:kreska pseudotaktowa	!	!LO:TX:t=P:problem:kreska pseudotaktowa	!	!LO:TX:t=P:problem:kreska pseudotaktowa	!	!LO:TX:t=P:problem:kreska pseudotaktowa	!
2D\	-tur	2A\	.	2a\	-tur	2dd\	-tur
=51-	=51-	=51-	=51-	=51-	=51-	=51-	=51-
2G\	a-	2B-\	-rem	2g\	ter-	2b-\	ter-
4D/	-pe-	4A\	.	4fn\	-ra,	4dd\	-ra
!LO:TX:t=P:problem:kreska pseudotaktowa	!	!LO:TX:t=P:problem:kreska pseudotaktowa	!	!LO:TX:t=P:problem:kreska pseudotaktowa	!	!LO:TX:t=P:problem:kreska pseudotaktowa	!
4C/	-ri-	4A\	et	4f\	et	4dd\	et
!	!	!	!	!LO:LB:g=original	!	!	!
=52-	=52-	=52-	=52-	=52-	=52-	=52-	=52-
!	!	!LO:TX:t=P:problem:kreska pseudotaktowa	!	!	!	!	!
4BB-/	-a-	1B-	ger-	2.f\	ger-	2.dd\	ger-
4C/	.	.	.	.	.	.	.
4D/	-tur	.	.	.	.	.	.
!LO:TX:t=P:problem:kreska pseudotaktowa	!	!	!	!	!	!	!
4E-X/	et	.	.	8e-X\L	.	8cc\L	.
!	!	!	!	!LO:TX:t=P:problem:kreska pseudotaktowa	!	!LO:TX:t=P:problem:kreska pseudotaktowa	!
.	.	.	.	8d\J	.	8b-\J	.
=53-	=53-	=53-	=53-	=53-	=53-	=53-	=53-
4Fny\	ger-	4A\	-mi-	4f\	.	4cc\	.
4F\	-mi-	4A\	-net	4f\	-mi-	4cc\	-mi-
!LO:TX:t=P:problem:kreska pseudotaktowa	!	!LO:TX:t=P:problem:kreska pseudotaktowa	!	!LO:TX:t=P:problem:kreska pseudotaktowa	!	!LO:TX:t=P:problem:kreska pseudotaktowa	!
2G\	-net	2B-\	Sal-	2e-X\	-net	2b-\	-net
!	!	!LO:LB:g=original	!	!	!	!	!
=54-	=54-	=54-	=54-	=54-	=54-	=54-	=54-
4E-X\	Sal-	4e-X\	.	4g\	Sal-	2b-\	Sal-
4C\	-va-	4e-\	-va-	4g\	-va-	.	.
!LO:TX:t=P:problem:kreska pseudotaktowa	!	!LO:TX:t=P:problem:kreska pseudotaktowa	!	!LO:TX:t=P:problem:kreska pseudotaktowa	!	!LO:TX:t=P:problem:kreska pseudotaktowa	!
2F\	-to-	2c\	-to-	2f\	-to-	2a\	-va-
=55-	=55-	=55-	=55-	=55-	=55-	=55-	=55-
2BB-/	-rem,	2d\	-rem	2f\	-rem	2b-\	-to-
!LO:TX:t=P:problem:kreska pseudotaktowa	!	!LO:TX:t=P:problem:kreska pseudotaktowa	!	!	!	!	!
2BB-/	et	2B-\	et	4f\	et	4dd\	-rem,
!	!	!	!	!LO:TX:t=P:problem:kreska pseudotaktowa	!	!LO:TX:t=P:problem:kreska pseudotaktowa	!
.	.	.	.	4g\	.	4dd\	et
=56-	=56-	=56-	=56-	=56-	=56-	=56-	=56-
4FF/	ger-	2.c\	ger-	2.a\	ger-	2.cc\	ger-
4GG/	.	.	.	.	.	.	.
4AA/	.	.	.	.	.	.	.
!LO:TX:t=P:problem:kreska pseudotaktowa	!	!LO:TX:t=P:problem:kreska pseudotaktowa	!	!	!	!	!
4BB-/	.	4d\	-mi-	8g\L	.	8b-\L	.
!	!	!	!	!LO:TX:t=P:problem:kreska pseudotaktowa	!	!LO:TX:t=P:problem:kreska pseudotaktowa	!
.	.	.	.	8f\J	.	8a\J	.
!LO:LB:g=original	!	!	!	!	!	!LO:LB:g=original	!
=57-	=57-	=57-	=57-	=57-	=57-	=57-	=57-
4C/	.	4c\	-net	4eny\	.	4g\	.
4C/	-mi-	4c\	Sal-	4e\	-mi-	4g\	-mi-
!LO:TX:t=P:problem:kreska pseudotaktowa	!	!LO:TX:t=P:problem:kreska pseudotaktowa	!	!LO:TX:t=P:problem:kreska pseudotaktowa	!	!LO:TX:t=P:problem:kreska pseudotaktowa	!
2D/	-net	2A\	.	2f\	-net	2f/	-net
=58-	=58-	=58-	=58-	=58-	=58-	=58-	=58-
4BB-/	Sal-	4B-\	.	4f\	Sal-	4dd\	ger-
4GG/	-va-	4B-\	-va-	4f\	-va-	4dd\	-mi-
!LO:TX:t=P:problem:kreska pseudotaktowa	!	!LO:TX:t=P:problem:kreska pseudotaktowa	!	!LO:TX:t=P:problem:kreska pseudotaktowa	!	!LO:TX:t=P:problem:kreska pseudotaktowa	!
2C/	-to-	2G/	-to-	2g\	-to-	2cc\	-net
=59-	=59-	=59-	=59-	=59-	=59-	=59-	=59-
2F\	-rem	2A\	-rem	2a\	-rem,	2cc\	Sal-
!	!	!LO:TX:t=P:problem:kreska pseudotaktowa	!	!LO:TX:t=P:problem:kreska pseudotaktowa	!	!LO:TX:t=P:problem:kreska pseudotaktowa	!
4B-\	Sal-	2d\	Sal-	2f\	Sal-	2dd\	-va-
!LO:TX:t=P:problem:kreska pseudotaktowa	!	!	!	!	!	!	!
4A\	.	.	.	.	.	.	.
!	!	!	!	!LO:LB:g=original	!	!	!
=60-	=60-	=60-	=60-	=60-	=60-	=60-	=60-
2G\	.	2G/	.	2e\	.	4b-\	-to-
.	.	.	.	.	.	4cc\	.
!LO:TX:t=P:problem:kreska pseudotaktowa	!	!LO:TX:t=P:problem:kreska pseudotaktowa	!	!LO:TX:t=P:problem:kreska pseudotaktowa	!	!LO:TX:t=P:problem:kreska pseudotaktowa	!
2F\	-va-	2d\	.	2f\	-lva-	2dd\	-rem,
=61-	=61-	=61-	=61-	=61-	=61-	=61-	=61-
2En\	-to-	2eny\	.	2g\	-to-	2cc#X\	Sal-
!LO:TX:t=P:problem:kreska pseudotaktowa	!	!LO:TX:t=P:problem:kreska pseudotaktowa	!	!LO:TX:t=P:problem:kreska pseudotaktowa	!	!LO:TX:t=P:problem:kreska pseudotaktowa	!
2D\	-rem	2f\	-va-	2f\	-rem	2dd\	.
!	!	!LO:LB:g=original	!	!	!	!	!
=62-	=62-	=62-	=62-	=62-	=62-	=62-	=62-
2AA/	Sal-	2c#X\	-to-	2e\	Sal-	2ee\	.
!LO:TX:t=P:problem:kreska pseudotaktowa	!	!LO:TX:t=P:problem:kreska pseudotaktowa	!	!LO:TX:t=P:problem:kreska pseudotaktowa	!	!LO:TX:t=P:problem:kreska pseudotaktowa	!
2D\	-va-	2A\	.	2f\	-va-	[2dd\	-va-
=63-	=63-	=63-	=63-	=63-	=63-	=63-	=63-
!	!	!LO:TX:t=P:problem:kreska pseudotaktowa	!	!LO:TX:t=P:problem:kreska pseudotaktowa	!	!	!
2A\	-to-	1A	.	1e	-to-	2dd\]	-to-
!LO:TX:t=P:problem:kreska pseudotaktowa	!	!	!	!	!	!LO:TX:t=P:problem:kreska pseudotaktowa	!
2AA/	.	.	.	.	.	2cc#X\	.
=64-	=64-	=64-	=64-	=64-	=64-	=64-	=64-
!	!	!	!	!LO:TX:a:t=2	!	!	!
0D;	-rem.	0A	-rem.	0f#X	-rem.	0dd	-rem.
==	==	==	==	==	==	==	==
*-	*-	*-	*-	*-	*-	*-	*-
!!!system-decoration: [(s1,s2,s3,s4)]
!!!ENC: Filip Voros
!!!END: 2023-11-04
!!!EED: Jan Barakat
!!!EEV: 2023-11-27
